X: 13036
T: Finbarr Dwyer's
R: reel
M: 4/4
K: Amixolydian
|:EA,B,A, EA,B,A,|(3G,G,G, G,A, A,B,B,D|EA,CE ABAG|EB,DB, A,A,AG|
EA (3ABA EAGE|DB,ED B,A,B,D|EA,CE ABAG|1 EB,DB, A,A,B,D:|2 EB,DB, A,A,AG||
|:EA (3ABA EAAF|G,GdG eGdG|EA (3ABA fAeB|AGED B,A,B,D|
EA (3ABA fAed|BAB^c Dded|^BccA BcBA|1 GEDB, G,A,AG:|2 GEDB, A,A,B,D||

